X:1566
T:Blackthorn Stick
M:6/8
L:1/8
K:G Major
D|GED EDE|GFG c2e|dBG GAB|AGE E2D|!
GED EDE|GFG c2e|dBG GAB|AGF G2:|!
d|gdB GBd|gdB c2e|dBG GAB|AGE E2D|!
[1gdB GBd|gdB c2e|dBG GAB|AGF G2:|!
[2GED EDE|GFG c2e|dBG GAB|AGF G2|]!


